src/components/Categories/kitchen_accessories.svg

<svg width="46" height="46" viewBox="0 0 46 46" fill="none" xmlns="http://www.w3.org/2000/svg">
<path d="M27.8607 35.7949C30.2495 37.3334 32.6 38.8334 34.9249 40.3334C36.2789 41.2052 36.7899 42.641 36.2789 44.0257C35.5891 45.8975 33.3664 46.5898 31.693 45.4103C29.4192 43.8205 27.1581 42.1923 24.8971 40.5769C24.3734 40.2052 23.8496 39.8462 23.3386 39.4616C23.0832 39.2693 22.9171 39.2949 22.6744 39.4744C19.9407 41.4359 17.1942 43.3975 14.435 45.3334C12.7999 46.4872 10.7049 45.9744 9.88738 44.2436C9.22312 42.8462 9.68299 41.2564 11.0243 40.3846C12.966 39.1154 14.9204 37.8718 16.8621 36.6282C17.2709 36.359 17.6924 36.0898 18.1395 35.8077C17.999 35.6923 17.884 35.6026 17.7691 35.5257C15.508 33.9103 13.2342 32.3077 10.986 30.6795C10.7177 30.4872 10.5261 30.4744 10.2195 30.6154C5.19924 32.9231 -0.0509711 28.718 0.000125856 24.077C0.0256743 21.3975 1.94181 19.1026 4.61162 18.577C8.26505 17.859 12.1229 20.2308 13.0682 23.8205C13.2598 24.5385 13.2598 25.3077 13.3109 26.0513C13.3236 26.3205 13.3747 26.4872 13.6047 26.6411C16.6449 28.5898 19.6852 30.5385 22.7127 32.5C22.9299 32.641 23.0832 32.641 23.3131 32.5C26.3406 30.5385 29.3809 28.5898 32.4211 26.6411C32.6638 26.4872 32.7149 26.3205 32.7022 26.0513C32.485 21.2949 36.5216 18.4616 40.0346 18.4616C44.4544 18.4487 47.1881 22.5257 45.5147 26.6282C44.1223 30.0257 39.894 32.5641 35.7041 30.5769C35.5764 30.5128 35.3592 30.5 35.2314 30.5769C34.8993 30.7693 34.6055 31.0128 34.2862 31.2308C32.1529 32.7308 30.0323 34.2436 27.8607 35.7949ZM5.94014 20C3.25755 20 1.3031 22 1.55858 24.577C1.92903 28.1667 6.18285 31.1667 9.9257 29C10.4878 28.6795 10.8838 28.718 11.3947 29.0769C15.9296 32.3205 20.4644 35.5513 25.0121 38.7821C27.4775 40.5385 29.9557 42.3077 32.4339 44.0641C33.1365 44.5641 33.9029 44.5385 34.4394 44.0128C35.1931 43.2821 35.0015 42.2052 34.0051 41.5641C26.8388 36.9487 19.6724 32.3334 12.4805 27.7564C11.8291 27.3462 11.5353 26.8975 11.7652 26.1539C11.8035 26.0257 11.7907 25.8718 11.8035 25.718C11.8546 22.6026 9.1848 20 5.94014 20ZM24.4372 33.5898C25.0121 33.9616 25.5486 34.2693 26.0468 34.6411C26.3661 34.8718 26.5705 34.8334 26.8771 34.6154C29.4958 32.7308 32.1273 30.8718 34.7588 28.9872C35.142 28.718 35.4869 28.6411 35.8957 28.8975C39.3703 31.0257 43.0493 28.718 44.1351 25.8975C45.1187 23.3205 43.8668 20.8077 41.2737 20.1282C38.0801 19.3077 33.6474 22.0128 34.3117 26.3718C34.4011 26.9359 34.2351 27.2949 33.7369 27.6026C31.1437 29.2436 28.5761 30.9103 25.9957 32.5769C25.4847 32.9103 24.9737 33.2436 24.4372 33.5898ZM21.678 38.2949C20.9882 37.8077 20.3239 37.3205 19.6597 36.8718C19.5702 36.8077 19.3531 36.8462 19.2509 36.9231C16.7599 38.5128 14.2817 40.1154 11.8035 41.7051C11.4075 41.9616 11.1648 42.3334 11.1393 42.8077C11.0882 43.3975 11.3181 43.8846 11.8291 44.1795C12.4039 44.5257 12.9915 44.4744 13.5408 44.0898C14.8949 43.1282 16.2489 42.1667 17.603 41.2051C18.9315 40.2564 20.2856 39.2949 21.678 38.2949Z" fill=""/>
<path d="M31.3993 26.2949C30.8883 26.1923 30.4284 26.0898 29.9302 25.9872C30.0707 25.2693 30.1985 24.5769 30.339 23.859C25.4465 23.859 20.5795 23.859 15.687 23.859C15.8147 24.5641 15.9552 25.2564 16.0957 26C15.5975 26.1026 15.1249 26.1923 14.6011 26.2949C14.3329 24.9616 14.0774 23.6795 13.8219 22.3975C13.3748 20.1795 12.9277 17.9744 12.5062 15.7564C12.4423 15.4487 12.3401 15.3334 12.0335 15.2821C8.39287 14.7436 5.78693 11.4103 6.15738 7.83335C6.55338 4.03848 9.77248 1.28207 13.5409 1.5513C14.7672 1.64104 15.9041 2.03848 16.9261 2.74361C17.041 2.82053 17.156 2.91027 17.2837 2.9872C20.0941 -0.987163 25.8936 -0.999983 28.7294 2.9872C29.5725 2.37181 30.4923 1.91027 31.5142 1.69232C35.2698 0.858991 39.0638 3.33335 39.7664 7.07694C40.5073 11.0257 37.9269 14.718 34.018 15.2821C33.6858 15.3334 33.5836 15.4616 33.5198 15.7821C32.8683 19.1154 32.204 22.4359 31.5398 25.7564C31.5014 25.9231 31.4504 26.0769 31.3993 26.2949ZM15.3548 22.2693C16.364 22.2693 17.3221 22.2693 18.2801 22.2693C18.063 20.7693 17.8586 19.2949 17.6542 17.8077C18.1779 17.7308 18.6633 17.6667 19.1615 17.5898C19.3915 19.1923 19.6214 20.7308 19.8386 22.2821C20.6561 22.2821 21.4354 22.2821 22.2529 22.2821C22.2529 19.4616 22.2529 16.6667 22.2529 13.8718C22.7766 13.8718 23.2493 13.8718 23.773 13.8718C23.773 16.6923 23.773 19.4872 23.773 22.2821C24.6034 22.2821 25.3698 22.2821 26.1618 22.2821C26.3918 20.718 26.6089 19.1667 26.8389 17.5769C27.3626 17.6539 27.848 17.7308 28.3462 17.8077C28.1291 19.3205 27.9247 20.7949 27.7203 22.2821C28.7039 22.2821 29.662 22.2821 30.6328 22.2821C30.6711 22.0898 30.7222 21.9103 30.7605 21.718C31.2204 19.3975 31.6803 17.0769 32.1529 14.7564C32.3062 13.9872 32.4595 13.8718 33.2387 13.8334C35.9469 13.7051 38.1951 11.4616 38.3229 8.75643C38.4251 6.50002 37.1988 4.47438 35.1677 3.5513C33.1621 2.64104 30.8755 3.0513 29.2276 4.6154C28.5889 5.21797 28.1546 5.14104 27.7203 4.38463C26.6728 2.53848 25.0888 1.56412 22.9938 1.56412C20.9116 1.56412 19.3404 2.5513 18.3057 4.37181C17.8586 5.15386 17.437 5.21797 16.76 4.60258C15.3293 3.26925 13.6559 2.76925 11.7653 3.24361C9.23597 3.85899 7.57532 6.12822 7.69029 8.74361C7.79248 11.2564 9.69584 13.3975 12.2379 13.7564C13.8475 13.9872 13.6558 13.7821 14.0135 15.5385C14.4606 17.7821 14.8949 20.0257 15.3548 22.2693Z" fill=""/>
<path d="M44.7227 30.3846C45.0676 30.7564 45.3869 31.1026 45.7446 31.5C44.7865 32.3975 43.7263 33.077 42.5383 33.5641C40.4561 34.4231 38.31 34.5513 36.1128 34.0385C35.9212 33.9872 35.6402 34.0385 35.4741 34.1539C34.5288 34.7949 33.5963 35.4744 32.6383 36.1539C32.3444 35.7308 32.0634 35.3462 31.7568 34.9231C32.0379 34.718 32.2934 34.5129 32.5616 34.3205C33.3919 33.7308 34.2095 33.1154 35.0654 32.5641C35.2953 32.4103 35.6785 32.3205 35.9468 32.3975C39.1659 33.3205 42.0273 32.6795 44.5566 30.5128C44.5949 30.4616 44.646 30.4359 44.7227 30.3846Z" fill=""/>
<path d="M5.04595 11.2821C4.59885 11.4359 4.15175 11.6026 3.70465 11.7564C2.24839 8.42311 3.21923 2.9231 7.53692 0.141052C7.80518 0.538488 8.07344 0.948745 8.35447 1.359C5.05872 3.9231 3.93459 7.19234 5.04595 11.2821Z" fill=""/>
<path d="M5.54429 15.0769C5.14829 14.5257 4.79061 14.0257 4.38184 13.4744C4.84171 13.2051 5.25048 12.9615 5.69758 12.7051C6.02971 13.1539 6.34907 13.6026 6.6812 14.0641C6.32352 14.3846 5.96584 14.7051 5.54429 15.0769Z" fill=""/>
</svg>

<svg xmlns="http://www.w3.org/2000/svg" width="46" height="46" fill="none"><path d="M27.86 35.795c2.39 1.538 4.74 3.038 7.065 4.538 1.354.872 1.865 2.308 1.354 3.693-.69 1.871-2.913 2.564-4.586 1.384-2.274-1.59-4.535-3.218-6.796-4.833-.524-.372-1.047-.73-1.558-1.115-.256-.193-.422-.167-.665.012a955.99 955.99 0 0 1-8.239 5.86c-1.635 1.153-3.73.64-4.548-1.09-.664-1.398-.204-2.988 1.137-3.86 1.942-1.269 3.896-2.512 5.838-3.756.409-.269.83-.538 1.278-.82a4.755 4.755 0 0 0-.37-.282c-2.262-1.616-4.536-3.218-6.784-4.847-.268-.192-.46-.205-.767-.064C5.2 32.923-.05 28.718 0 24.077c.026-2.68 1.942-4.974 4.612-5.5 3.653-.718 7.51 1.654 8.456 5.243.192.718.192 1.488.243 2.231.013.27.064.436.294.59 3.04 1.949 6.08 3.898 9.108 5.859.217.141.37.141.6 0 3.028-1.962 6.068-3.91 9.108-5.859.243-.154.294-.32.281-.59-.217-4.756 3.82-7.59 7.333-7.59 4.42-.012 7.153 4.065 5.48 8.167-1.393 3.398-5.621 5.936-9.81 3.949-.129-.064-.346-.077-.474 0-.332.192-.626.436-.945.654-2.133 1.5-4.254 3.013-6.425 4.564ZM5.94 20c-2.682 0-4.637 2-4.381 4.577.37 3.59 4.624 6.59 8.367 4.423.562-.32.958-.282 1.469.077 4.535 3.244 9.07 6.474 13.617 9.705 2.465 1.757 4.944 3.526 7.422 5.282.703.5 1.469.474 2.005-.051.754-.73.563-1.808-.434-2.449A4724.08 4724.08 0 0 0 12.48 27.756c-.65-.41-.945-.858-.715-1.602.038-.128.026-.282.038-.436C11.855 22.603 9.185 20 5.94 20Zm18.497 13.59c.575.372 1.112.68 1.61 1.051.32.23.523.192.83-.026 2.619-1.884 5.25-3.743 7.882-5.628.383-.269.728-.346 1.137-.09 3.474 2.129 7.153-.179 8.24-3 .983-2.576-.27-5.09-2.862-5.769-3.194-.82-7.627 1.885-6.962 6.244.09.564-.077.923-.575 1.23-2.593 1.642-5.16 3.308-7.741 4.975-.511.333-1.022.667-1.559 1.013Zm-2.759 4.705c-.69-.487-1.354-.974-2.018-1.423-.09-.064-.307-.026-.41.051-2.49 1.59-4.968 3.192-7.447 4.782-.396.257-.638.628-.664 1.103-.05.59.18 1.077.69 1.371.575.347 1.162.295 1.712-.09 1.354-.96 2.708-1.922 4.062-2.884 1.328-.949 2.683-1.91 4.075-2.91Z"/><path d="M31.4 26.295c-.512-.103-.972-.205-1.47-.308.14-.718.268-1.41.409-2.128H15.687c.128.705.268 1.397.409 2.141-.498.103-.971.192-1.495.295-.268-1.333-.524-2.616-.78-3.898-.446-2.217-.893-4.423-1.315-6.64-.064-.308-.166-.424-.473-.475-3.64-.538-6.246-3.872-5.876-7.449.396-3.795 3.615-6.55 7.384-6.282a6.744 6.744 0 0 1 3.385 1.193c.115.077.23.166.358.243a6.978 6.978 0 0 1 11.445 0c.844-.615 1.763-1.077 2.785-1.295 3.756-.833 7.55 1.641 8.252 5.385.741 3.949-1.84 7.641-5.748 8.205-.332.051-.434.18-.498.5-.652 3.333-1.316 6.654-1.98 9.974-.039.167-.09.32-.14.539Zm-16.045-4.026h2.925a626.55 626.55 0 0 1-.626-4.461c.524-.077 1.01-.141 1.508-.218.23 1.602.46 3.14.677 4.692h2.414v-8.41h1.52v8.41h2.389c.23-1.564.447-3.115.677-4.705.524.077 1.009.154 1.507.23a753.39 753.39 0 0 0-.626 4.475h2.913c.038-.192.09-.372.128-.564.46-2.32.92-4.641 1.392-6.962.153-.769.306-.884 1.086-.923 2.708-.128 4.956-2.371 5.084-5.077.102-2.256-1.124-4.282-3.155-5.205-2.006-.91-4.293-.5-5.94 1.064-.64.603-1.073.526-1.508-.23-1.047-1.847-2.631-2.82-4.726-2.82-2.082 0-3.654.986-4.688 2.807-.447.782-.869.846-1.546.23-1.43-1.333-3.104-1.833-4.995-1.358-2.529.615-4.19 2.884-4.075 5.5a5.302 5.302 0 0 0 4.548 5.012c1.61.231 1.418.026 1.776 1.783.447 2.243.88 4.487 1.34 6.73ZM44.723 30.385c.345.371.664.718 1.022 1.115a10.41 10.41 0 0 1-3.207 2.064c-2.082.86-4.228.987-6.425.474a.865.865 0 0 0-.639.116c-.945.64-1.878 1.32-2.836 2-.294-.423-.575-.808-.881-1.23.28-.206.536-.411.805-.603.83-.59 1.648-1.206 2.503-1.757.23-.154.614-.243.882-.166 3.219.922 6.08.281 8.61-1.885.038-.051.089-.077.166-.128Z"/><path d="M5.046 11.282c-.447.154-.894.32-1.341.474C2.248 8.423 3.219 2.923 7.537.141c.268.397.536.808.817 1.218-3.295 2.564-4.42 5.833-3.308 9.923ZM5.544 15.077c-.396-.551-.753-1.051-1.162-1.603.46-.269.868-.513 1.316-.769.332.449.651.898.983 1.36-.357.32-.715.64-1.137 1.012Z"/></svg>
